X:20
T:Betty's Delight
R:jig
C:Liz Kane
D:Liz and Yvonne Kane
S:Clare FM
Z:psc -  http://www.cranfordpub.com
L:1/8
Q:300
M:6/8
K:Ddor
E|D2 E FED|Ade cAG|FAd fed|cAG ECE|
DA,D FED|dce dcA|GEG cBA|GEC D2:|
|:c|Adc dcA|cfe dcA|G2 c cBA|GEG c2 B|
Ade fed|gfe dcA|(FA/B/c) dcA|GEC D2:|
